img/facebook.svg

<svg viewBox="0 0 31 31" xmlns="http://www.w3.org/2000/svg"><path d="m15.5.5a15 15 0 1 0 15 15 15 15 0 0 0 -15-15zm3.28 15.33h-2v7.07h-2.92v-7.07h-1.4v-2.5h1.4v-1.62a2.75 2.75 0 0 1 3-3h2.14v2.43h-1.58a.6.6 0 0 0 -.62.68v1.47h2.2z" fill="#fff"/></svg>

<svg xmlns="http://www.w3.org/2000/svg" viewBox="0 0 31 31"><defs><style>.a{fill:#fff;}</style></defs><title>Artboard 9</title><path class="a" d="M15.5.5a15,15,0,1,0,15,15A15,15,0,0,0,15.5.5Zm3.28,15.33h-2V22.9H13.86V15.83h-1.4v-2.5h1.4V11.71a2.75,2.75,0,0,1,3-3H19v2.43H17.42a.6.6,0,0,0-.62.68v1.47H19Z"/></svg>
